img/new-window.svg

<svg xmlns="http://www.w3.org/2000/svg" xmlns:xlink="http://www.w3.org/1999/xlink" width="16" height="16" viewBox="0 0 16 16"><defs><linearGradient id="b" x2="0" y2="100%"><stop offset="0" stop-color="#fff" stop-opacity="0"/><stop offset="1" stop-color="#fff" stop-opacity=".15"/></linearGradient><filter id="c"><feGaussianBlur stdDeviation=".3" in="SourceGraphic"/></filter><path id="a" d="M14.5 15h-13C.673 15 0 14.33 0 13.5v-11C0 1.672.673 1 1.5 1h13c.828 0 1.5.672 1.5 1.5v11c0 .83-.672 1.5-1.5 1.5zM2.5 2c-.275 0-.5.225-.5.5 0 .277.225.5.5.5.277 0 .5-.223.5-.5 0-.275-.223-.5-.5-.5zM4.44 2c-.276 0-.5.225-.5.5 0 .277.224.5.5.5s.5-.224.5-.5c0-.275-.224-.5-.5-.5zM6.5 2c-.276 0-.5.225-.5.5 0 .277.224.5.5.5s.5-.223.5-.5c0-.275-.224-.5-.5-.5zM14 5c0-.552-.447-1-1-1H3c-.55 0-1 .448-1 1v7c0 .553.45 1 1 1h10c.553 0 1-.447 1-1V5z"/><clipPath id="d"><use xlink:href="#a" fill="#fff"/></clipPath></defs><use xlink:href="#a" fill="ButtonText" fill-opacity=".8"/><use xlink:href="#a" fill="url(#b)"/><path d="M14.844 15.484H1.814c-.83 0-2.313-.344-2.313-2.172V2.5C-.5 1.672.173 1 1 1h13.985c.828 0 1.5.672 1.5 1.5v11.297c0 .64-.985 1.687-1.64 1.687zM6.5 2.507c-.028 0-.05.08-.05.175 0 .097.022.175.05.175.027 0 .05-.08.05-.175 0-.096-.022-.175-.05-.175zm-2.05 0c-.028 0-.05.08-.05.175 0 .097.022.175.05.175.027 0 .05-.08.05-.175 0-.096-.022-.175-.05-.175zm-1.934 0c-.028 0-.05.08-.05.175 0 .097.022.175.05.175.027 0 .05-.08.05-.175 0-.096-.023-.175-.05-.175zM13.5 5.484c0-.922-.062-1-1-1H3.484c-.844 0-1 .094-1 1V12c0 .83.224 1 1 1H12.5c.938 0 1-.234 1-1V5.485z" stroke="ButtonText" stroke-opacity=".7" filter="url(#c)" clip-path="url(#d)" stroke-miterlimit="10" fill="none"/></svg>

<?xml version="1.0" encoding="utf-8"?>
<!DOCTYPE svg PUBLIC "-//W3C//DTD SVG 1.1//EN" "http://www.w3.org/Graphics/SVG/1.1/DTD/svg11.dtd">

<svg version="1.1" id="toolbarButton-newWindow" xmlns="http://www.w3.org/2000/svg" xmlns:xlink="http://www.w3.org/1999/xlink" x="0px" y="0px" width="16px" height="16px" viewBox="0 0 16 16" xml:space="preserve">

  <defs>
    <linearGradient id="gradientOverlay" x1="0" y1="0" x2="0" y2="100%">
      <stop id="transparentStop" style="stop-color:#ffffff;stop-opacity:0" offset="0"/>
      <stop id="translucentStop" style="stop-color:#ffffff;stop-opacity:0.15" offset="1"/>
    </linearGradient>

    <filter id="blur">
      <feGaussianBlur stdDeviation=".3" in="SourceGraphic"/>
    </filter>

  	<path id="glyphShape" d="M14.5,15.001H1.501c-0.829,0-1.5-0.672-1.5-1.5V2.5 c0-0.828,0.671-1.499,1.5-1.499H14.5c0.828,0,1.5,0.671,1.5,1.499v11.001C16,14.329,15.328,15.001,14.5,15.001z M2.501,2 c-0.276,0-0.5,0.225-0.5,0.5c0,0.277,0.224,0.5,0.5,0.5C2.777,3,3,2.777,3,2.5C3,2.225,2.777,2,2.501,2z M4.438,2 c-0.276,0-0.5,0.225-0.5,0.5c0,0.277,0.224,0.5,0.5,0.5s0.5-0.224,0.5-0.5C4.938,2.225,4.714,2,4.438,2z M6.5,2 C6.224,2,6,2.225,6,2.5C6,2.777,6.224,3,6.5,3C6.776,3,7,2.777,7,2.5C7,2.225,6.776,2,6.5,2z M14,5c0-0.552-0.447-1-1-1H3.001 c-0.552,0-1,0.448-1,1v7c0,0.553,0.448,1,1,1H13c0.553,0,1-0.447,1-1V5z" />

    <clipPath id="mask" maskUnits="objectBoundingBox" maskContentUnits="objectBoundingBox">
      <use xlink:href="#glyphShape" style="fill: white;" />
    </clipPath>

  </defs>
 
  <use xlink:href="#glyphShape" style="fill: ButtonText; fill-opacity: .8;" />

  <use xlink:href="#glyphShape" style="fill: url(#gradientOverlay);" />

	<path id="innerShadow" d="M14.844,15.484c0,0-12.516,0-13.031,0c-0.828,0-2.312-0.344-2.312-2.172V2.5c0-0.828,0.671-1.499,1.5-1.499h13.984 c0.828,0,1.5,0.671,1.5,1.499v11.297C16.484,14.438,15.5,15.484,14.844,15.484z M6.5,2.507c-0.028,0-0.05,0.079-0.05,0.175 c0,0.097,0.022,0.175,0.05,0.175c0.027,0,0.05-0.079,0.05-0.175C6.55,2.586,6.528,2.507,6.5,2.507z M4.45,2.507 c-0.028,0-0.05,0.079-0.05,0.175c0,0.097,0.022,0.175,0.05,0.175c0.027,0,0.05-0.079,0.05-0.175C4.5,2.586,4.478,2.507,4.45,2.507z M2.516,2.507c-0.028,0-0.05,0.079-0.05,0.175c0,0.097,0.022,0.175,0.05,0.175c0.027,0,0.05-0.079,0.05-0.175 C2.565,2.586,2.543,2.507,2.516,2.507z M13.5,5.484c0-0.922-0.062-1-1-1H3.484c-0.844,0-1,0.094-1,1v6.517c0,0.828,0.224,1,1,1H12.5 c0.938,0,1-0.235,1-1V5.484z"
	      style="fill: none; stroke: ButtonText; stroke-opacity: .7; filter: url(#blur); clip-path: url(#mask); stroke-miterlimit: 10;" />

</svg>
